X: 3548
T: Big Man, The
R: mazurka
M: 3/4
K: Dmajor
DFG|:A2 D2 d>c|B<d G>G FG|A2 DF G<F|F<E E>E FG|
A2 D2 d>c|B<d G2 AG|F>D E<G F<A|1 D3 DFG:|2 D3 DCD||
|:E2 A,2 G>E|F<A D2 d>c|B<d G2 AG|F>D E2 CD|
E2 A,2 G>E|F<A D2 d>c|B>G F<A E<F|1 D3 DCD:|2 D3 DFG||

